public/sheesh/icons6.svg

<svg width="42" height="42" viewBox="0 0 42 42" fill="none" xmlns="http://www.w3.org/2000/svg">
<rect width="42" height="42" rx="8" fill="#1D202F"/>
<path d="M30.639 18.8984H22.249V24.3784C22.249 24.7884 21.909 25.1284 21.499 25.1284C21.089 25.1284 20.749 24.7884 20.749 24.3784V18.8984H12.359C11.879 18.8984 11.499 19.2784 11.499 19.7584C11.499 25.6484 15.609 29.7584 21.499 29.7584C27.389 29.7584 31.499 25.6484 31.499 19.7584C31.499 19.2784 31.119 18.8984 30.639 18.8984Z" fill="#434665"/>
<path d="M22.2504 14.7997L23.8104 16.3597C24.1004 16.6497 24.5804 16.6497 24.8704 16.3597C25.1604 16.0697 25.1604 15.5897 24.8704 15.2997L22.0204 12.4597C21.7304 12.1697 21.2504 12.1697 20.9604 12.4597L18.1204 15.3097C17.9804 15.4597 17.9004 15.6497 17.9004 15.8397C17.9004 16.0297 17.9704 16.2197 18.1204 16.3697C18.4104 16.6597 18.8904 16.6597 19.1804 16.3697L20.7404 14.8097V18.8997H22.2404V14.7997H22.2504Z" fill="#434665"/>
</svg>

<svg fill="none" height="42" viewBox="0 0 42 42" width="42" xmlns="http://www.w3.org/2000/svg"><rect fill="#1d202f" height="42" rx="8" width="42"/><g fill="#434665"><path d="m30.639 18.8984h-8.39v5.48c0 .41-.34.75-.75.75s-.75-.34-.75-.75v-5.48h-8.39c-.48 0-.86.38-.86.86 0 5.89 4.11 10 10 10s10-4.11 10-10c0-.48-.38-.86-.86-.86z"/><path d="m22.2504 14.7997 1.56 1.56c.29.29.77.29 1.06 0s.29-.77 0-1.06l-2.85-2.84c-.29-.29-.77-.29-1.06 0l-2.84 2.85c-.14.15-.22.34-.22.53s.07.38.22.53c.29.29.77.29 1.06 0l1.56-1.56v4.09h1.5v-4.1z"/></g></svg>
